assets/images/ico_step4.svg

<svg width="74" height="62" viewBox="0 0 74 62" fill="none" xmlns="http://www.w3.org/2000/svg">
<path d="M41.6498 31C44.6391 31.002 47.5619 30.1173 50.0482 28.4577C52.5346 26.7982 54.4728 24.4384 55.6177 21.677C56.7626 18.9156 57.0627 15.8767 56.48 12.9447C55.8973 10.0127 54.458 7.31943 52.3442 5.20565C50.2304 3.09188 47.5372 1.65259 44.6052 1.06988C41.6732 0.48718 38.6342 0.78725 35.8728 1.93213C33.1114 3.07701 30.7517 5.01525 29.0921 7.5016C27.4326 9.98796 26.5478 12.9107 26.5498 15.9C26.5551 19.9032 28.1477 23.7408 30.9783 26.5715C33.809 29.4022 37.6467 30.9947 41.6498 31ZM41.6498 2.79003C44.2431 2.78806 46.7788 3.55526 48.9361 4.9946C51.0933 6.43394 52.7752 8.48076 53.769 10.8761C54.7628 13.2715 55.0238 15.9078 54.5191 18.4515C54.0144 20.9953 52.7666 23.3322 50.9335 25.1667C49.1004 27.0011 46.7645 28.2507 44.2211 28.7574C41.6778 29.2641 39.0413 29.005 36.6451 28.013C34.249 27.0211 32.2009 25.3407 30.7599 23.1846C29.3189 21.0285 28.5498 18.4934 28.5498 15.9C28.5472 14.1776 28.884 12.4715 29.541 10.8792C30.1981 9.28699 31.1624 7.83983 32.379 6.62047C33.5956 5.4011 35.0405 4.43343 36.6313 3.77275C38.222 3.11208 39.9273 2.77134 41.6498 2.77003V2.79003Z" fill="#2EBBE1" stroke="#2EBBE1" stroke-width="0.4"/>
<path d="M69.0001 40.4001C68.7044 40.3993 68.4095 40.4295 68.1201 40.4901C68.0836 40.4946 68.0466 40.4946 68.0101 40.4901C67.815 40.5368 67.6243 40.6004 67.4401 40.6801L52.2701 45.6801C52.3176 45.4327 52.3443 45.1819 52.3501 44.9301C52.3475 43.8267 51.9087 42.769 51.1294 41.9879C50.3501 41.2067 49.2935 40.7654 48.1901 40.7601H38.0001C37.8101 40.4401 37.6001 40.1301 37.3901 39.8401C36.4586 38.5981 35.2508 37.5901 33.8623 36.8958C32.4737 36.2015 30.9426 35.8401 29.3901 35.8401H16.1201V32.7701C16.1201 32.5049 16.0148 32.2505 15.8272 32.063C15.6397 31.8754 15.3853 31.7701 15.1201 31.7701H1.87012C1.6049 31.7701 1.35055 31.8754 1.16301 32.063C0.975474 32.2505 0.870117 32.5049 0.870117 32.7701V56.3601C0.870117 56.6253 0.975474 56.8797 1.16301 57.0672C1.35055 57.2547 1.6049 57.3601 1.87012 57.3601H15.1201C15.3853 57.3601 15.6397 57.2547 15.8272 57.0672C16.0148 56.8797 16.1201 56.6253 16.1201 56.3601V54.3601L36.5501 60.5001C38.1419 61.0681 39.8418 61.2678 41.5219 61.0842C43.202 60.9006 44.8186 60.3385 46.2501 59.4401L70.5101 48.4301C71.3852 48.0539 72.105 47.3894 72.55 46.5472C72.995 45.7051 73.1382 44.7359 72.9559 43.8011C72.7736 42.8662 72.2767 42.0219 71.548 41.4086C70.8192 40.7953 69.9024 40.45 68.9501 40.4301L69.0001 40.4001ZM14.1601 55.4001H2.87012V33.7701H14.1201L14.1601 55.4001ZM69.6301 46.6901L45.5401 57.6901H45.4501C44.2637 58.4521 42.9176 58.9306 41.5164 59.0885C40.1151 59.2463 38.6963 59.0792 37.3701 58.6001L16.1201 52.3201V37.8601H29.3901C30.6315 37.8554 31.8566 38.1425 32.9666 38.6984C34.0765 39.2542 35.0403 40.0632 35.7801 41.0601C36.0364 41.4061 36.267 41.7704 36.4701 42.1501C36.5451 42.3327 36.6725 42.489 36.8363 42.5994C37 42.7097 37.1927 42.7691 37.3901 42.7701H48.1301C48.7039 42.7727 49.2533 43.0025 49.6581 43.4092C50.0629 43.8159 50.2901 44.3663 50.2901 44.9401C50.2925 45.241 50.2314 45.539 50.1108 45.8147C49.9901 46.0904 49.8127 46.3376 49.5901 46.5401C49.1937 46.9077 48.6707 47.1083 48.1301 47.1001H29.7901C29.5249 47.1001 29.2705 47.2054 29.083 47.393C28.8955 47.5805 28.7901 47.8349 28.7901 48.1001C28.7901 48.3653 28.8955 48.6196 29.083 48.8072C29.2705 48.9947 29.5249 49.1001 29.7901 49.1001H48.1501C48.9844 49.0987 49.7979 48.8403 50.4801 48.3601L68.4801 42.4501C68.6498 42.4067 68.8252 42.3899 69.0001 42.4001C69.5739 42.4001 70.1243 42.6273 70.531 43.0321C70.9377 43.4369 71.1675 43.9863 71.1701 44.5601C71.1641 45.0314 71.0075 45.4885 70.7232 45.8645C70.439 46.2405 70.0419 46.5157 69.5901 46.6501L69.6301 46.6901Z" fill="#2EBBE1" stroke="#2EBBE1" stroke-width="0.4"/>
<path d="M47.7191 18.9859C48.0953 19.3117 48.1367 19.8793 47.8121 20.2555C46.5623 21.7027 44.8883 22.5001 43.1003 22.5001C40.3511 22.5001 37.7879 20.5621 36.8609 17.4001H34.7003C34.2029 17.4001 33.8003 16.9975 33.8003 16.5001C33.8003 16.0027 34.2029 15.6001 34.7003 15.6001H36.5363C36.5087 15.2005 36.5087 14.7997 36.5363 14.4001H34.7003C34.2029 14.4001 33.8003 13.9975 33.8003 13.5001C33.8003 13.0027 34.2029 12.6001 34.7003 12.6001H36.8609C37.7891 9.43326 40.3565 7.50006 43.1003 7.50006C44.8883 7.50006 46.5623 8.29746 47.8127 9.74466C48.1373 10.1209 48.0959 10.6891 47.7197 11.0143C47.3441 11.3389 46.7753 11.2975 46.4501 10.9213C45.5465 9.87606 44.3579 9.30006 43.1003 9.30006C41.1077 9.30006 39.4931 10.7161 38.7497 12.6001H41.9003C42.3977 12.6001 42.8003 13.0027 42.8003 13.5001C42.8003 13.9975 42.3977 14.4001 41.9003 14.4001H38.3225C38.2865 14.7991 38.2865 15.2011 38.3225 15.6001H41.9003C42.3977 15.6001 42.8003 16.0027 42.8003 16.5001C42.8003 16.9975 42.3977 17.4001 41.9003 17.4001H38.7497C39.4955 19.2901 41.1137 20.7001 43.1003 20.7001C44.3579 20.7001 45.5465 20.1241 46.4495 19.0789C46.7747 18.7027 47.3423 18.6625 47.7191 18.9859Z" fill="#2EBBE1" stroke="#2EBBE1" stroke-width="0.4"/>
</svg>

<svg width="74" height="62" fill="none" xmlns="http://www.w3.org/2000/svg"><path d="M41.65 31a15.11 15.11 0 10-15.1-15.1A15.12 15.12 0 0041.65 31zm0-28.21a13.11 13.11 0 11-13.1 13.11 13.112 13.112 0 0113.1-13.13v.02zM69 40.4c-.296 0-.59.03-.88.09a.45.45 0 01-.11 0c-.195.047-.386.11-.57.19l-15.17 5a4.53 4.53 0 00.08-.75 4.18 4.18 0 00-4.16-4.17H38c-.19-.32-.4-.63-.61-.92a10 10 0 00-8-4H16.12v-3.07a1 1 0 00-1-1H1.87a1 1 0 00-1 1v23.59a1 1 0 001 1h13.25a1 1 0 001-1v-2l20.43 6.14a11.18 11.18 0 009.7-1.06l24.26-11.01a4.17 4.17 0 00-1.56-8l.05-.03zm-54.84 15H2.87V33.77h11.25l.04 21.63zm55.47-8.71l-24.09 11h-.09a9.182 9.182 0 01-8.08.91l-21.25-6.28V37.86h13.27a7.92 7.92 0 016.39 3.2c.256.346.487.71.69 1.09a1 1 0 00.92.62h10.74a2.17 2.17 0 012.16 2.17 2.14 2.14 0 01-.7 1.6 2.1 2.1 0 01-1.46.56H29.79a1 1 0 100 2h18.36a4.06 4.06 0 002.33-.74l18-5.91a1.7 1.7 0 01.52-.05 2.17 2.17 0 012.17 2.16 2.21 2.21 0 01-1.58 2.09l.04.04z" fill="#2EBBE1" stroke="#2EBBE1" stroke-width=".4"/><path d="M47.72 18.986a.9.9 0 01.092 1.27c-1.25 1.447-2.924 2.244-4.712 2.244-2.749 0-5.312-1.938-6.24-5.1H34.7a.9.9 0 110-1.8h1.836c-.027-.4-.027-.8 0-1.2H34.7a.9.9 0 110-1.8h2.16c.93-3.167 3.496-5.1 6.24-5.1 1.788 0 3.462.797 4.713 2.245a.9.9 0 01-1.363 1.176c-.904-1.045-2.092-1.62-3.35-1.62-1.992 0-3.607 1.415-4.35 3.3h3.15a.9.9 0 110 1.8h-3.578a6.68 6.68 0 000 1.2H41.9a.9.9 0 110 1.8h-3.15c.745 1.89 2.364 3.3 4.35 3.3 1.258 0 2.447-.577 3.35-1.622a.902.902 0 011.27-.093z" fill="#2EBBE1" stroke="#2EBBE1" stroke-width=".4"/></svg>
